contributed-vectors/bolt.svg

<svg xmlns="http://www.w3.org/2000/svg" xml:space="preserve" style="fill-rule:evenodd;clip-rule:evenodd;stroke-linejoin:round;stroke-miterlimit:2" viewBox="0 0 192 192"><path d="M164.5 21.5c0-5.519-4.481-10-10-10h-133c-5.519 0-10 4.481-10 10v133c0 5.519 4.481 10 10 10h133c5.519 0 10-4.481 10-10v-133Z" style="fill:#96dfd3" transform="translate(8 8)"/><path d="M96.933 82.172c10.696 0 19.38 8.684 19.38 19.38s-8.684 19.38-19.38 19.38-19.38-8.684-19.38-19.38 8.684-19.38 19.38-19.38Zm0 13.154a6.23 6.23 0 0 1 6.226 6.226 6.23 6.23 0 0 1-6.226 6.226 6.23 6.23 0 0 1-6.227-6.226 6.23 6.23 0 0 1 6.227-6.226Z" style="fill:#fff" transform="matrix(.82449 0 0 .82449 16.842 17.949)"/><circle cx="96" cy="100.969" r="18.844" style="fill:#fff" transform="matrix(.27243 0 0 .27243 70.609 98.687)"/><path d="M132.769 67.033v53.899H120V69.747l12.769-2.714Z" style="fill:#fff" transform="matrix(.82449 0 0 .82449 16.842 17.949)"/><path d="M132.769 67.033v53.899H120V69.747l12.769-2.714ZM150.203 82.918h6.083v12.521h-6.083v12.339c.484 3.856 6.083 2.177 6.083 2.177v9.171c-19.072 6.807-18.852-11.348-18.852-11.348V75.181l12.769-1.729v9.466ZM55.486 67.014c8.897 0 16.12 7.223 16.12 16.12 0 3.184-.925 6.153-2.52 8.653a17.186 17.186 0 0 1 4.769 11.9c0 9.518-7.727 17.245-17.245 17.245-.378 0-.753-.012-1.124-.036v.036H35.632V67.014h19.854Zm-7.293 40.743v-8.076h8.57c2.637.014 4.772 1.818 4.772 4.038 0 2.229-2.152 4.038-4.803 4.038h-8.539Zm0-20.125v-8.076h7.204a4.04 4.04 0 0 1 4.012 4.038 4.04 4.04 0 0 1-4.038 4.038h-7.178Z" style="fill:#fff" transform="matrix(.82449 0 0 .82449 16.842 17.949)"/></svg>

<?xml version="1.0" encoding="UTF-8" standalone="no"?>
<!DOCTYPE svg PUBLIC "-//W3C//DTD SVG 1.1//EN" "http://www.w3.org/Graphics/SVG/1.1/DTD/svg11.dtd">
<svg width="100%" height="100%" viewBox="0 0 192 192" version="1.1" xmlns="http://www.w3.org/2000/svg" xmlns:xlink="http://www.w3.org/1999/xlink" xml:space="preserve" xmlns:serif="http://www.serif.com/" style="fill-rule:evenodd;clip-rule:evenodd;stroke-linejoin:round;stroke-miterlimit:2;">
    <g id="Layer1">
        <g transform="matrix(1,0,0,1,8,8)">
            <path d="M164.5,21.5C164.5,15.981 160.019,11.5 154.5,11.5L21.5,11.5C15.981,11.5 11.5,15.981 11.5,21.5L11.5,154.5C11.5,160.019 15.981,164.5 21.5,164.5L154.5,164.5C160.019,164.5 164.5,160.019 164.5,154.5L164.5,21.5Z" style="fill:rgb(150,223,211);"/>
        </g>
        <g transform="matrix(0.824485,0,0,0.824485,16.8423,17.949)">
            <path d="M96.933,82.172C107.629,82.172 116.313,90.856 116.313,101.552C116.313,112.248 107.629,120.932 96.933,120.932C86.237,120.932 77.553,112.248 77.553,101.552C77.553,90.856 86.237,82.172 96.933,82.172ZM96.933,95.326C100.369,95.326 103.159,98.116 103.159,101.552C103.159,104.988 100.369,107.778 96.933,107.778C93.496,107.778 90.706,104.988 90.706,101.552C90.706,98.116 93.496,95.326 96.933,95.326Z" style="fill:white;"/>
            <g transform="matrix(0.330422,0,0,0.330422,65.2124,97.9257)">
                <circle cx="96" cy="100.969" r="18.844" style="fill:white;"/>
            </g>
            <path d="M132.769,67.033L132.769,120.932L120,120.932L120,69.747L132.769,67.033Z" style="fill:white;"/>
            <path d="M132.769,67.033L132.769,120.932L120,120.932L120,69.747L132.769,67.033Z" style="fill:white;"/>
            <path d="M150.203,82.918L156.286,82.918L156.286,95.439L150.203,95.439L150.203,107.778C150.687,111.634 156.286,109.955 156.286,109.955L156.286,119.126C137.214,125.933 137.434,107.778 137.434,107.778L137.434,75.181L150.203,73.452L150.203,82.918Z" style="fill:white;"/>
            <path d="M55.486,67.014C64.383,67.014 71.606,74.237 71.606,83.134C71.606,86.318 70.681,89.287 69.086,91.787C72.04,94.883 73.855,99.075 73.855,103.687C73.855,113.205 66.128,120.932 56.61,120.932C56.232,120.932 55.857,120.92 55.486,120.896L55.486,120.932L35.632,120.932L35.632,67.014L55.486,67.014ZM48.193,107.757L48.193,99.681L56.763,99.681C59.4,99.695 61.535,101.499 61.535,103.719C61.535,105.948 59.383,107.757 56.732,107.757L48.193,107.757ZM48.193,87.632L48.193,79.556L55.397,79.556C57.614,79.57 59.409,81.374 59.409,83.594C59.409,85.823 57.6,87.632 55.371,87.632L48.193,87.632Z" style="fill:white;"/>
        </g>
    </g>
</svg>
